Final project/assets/images/w-w-d-family-icon.svg

<svg width="28" height="28" viewBox="0 0 28 28" fill="none" xmlns="http://www.w3.org/2000/svg">
<rect width="28" height="28" rx="4" fill="black"/>
<path d="M14.9395 18.5977H15.8184V21H14.9395V18.5977Z" fill="#FFEBB9"/>
<path d="M13.1816 18.5977H14.0605V21H13.1816V18.5977Z" fill="#FFEBB9"/>
<path d="M17.459 6H11.541C11.2983 6 11.1016 6.19676 11.1016 6.43945V21H12.3027V18.1582C12.3027 17.9155 12.4995 17.7188 12.7422 17.7188H16.2578C16.5005 17.7188 16.6973 17.9155 16.6973 18.1582V21H17.8984V6.43945C17.8984 6.19676 17.7017 6 17.459 6ZM13.1816 16.4004C13.1816 16.6431 12.9849 16.8398 12.7422 16.8398C12.4995 16.8398 12.3027 16.6431 12.3027 16.4004V15.5215C12.3027 15.2788 12.4995 15.082 12.7422 15.082C12.9849 15.082 13.1816 15.2788 13.1816 15.5215V16.4004ZM13.1816 13.7637C13.1816 14.0064 12.9849 14.2031 12.7422 14.2031C12.4995 14.2031 12.3027 14.0064 12.3027 13.7637V12.8848C12.3027 12.6421 12.4995 12.4453 12.7422 12.4453C12.9849 12.4453 13.1816 12.6421 13.1816 12.8848V13.7637ZM14.9395 16.4004C14.9395 16.6431 14.7427 16.8398 14.5 16.8398C14.2573 16.8398 14.0605 16.6431 14.0605 16.4004V15.5215C14.0605 15.2788 14.2573 15.082 14.5 15.082C14.7427 15.082 14.9395 15.2788 14.9395 15.5215V16.4004ZM14.9395 13.7637C14.9395 14.0064 14.7427 14.2031 14.5 14.2031C14.2573 14.2031 14.0605 14.0064 14.0605 13.7637V12.8848C14.0605 12.6421 14.2573 12.4453 14.5 12.4453C14.7427 12.4453 14.9395 12.6421 14.9395 12.8848V13.7637ZM16.6973 16.4004C16.6973 16.6431 16.5005 16.8398 16.2578 16.8398C16.0151 16.8398 15.8184 16.6431 15.8184 16.4004V15.5215C15.8184 15.2788 16.0151 15.082 16.2578 15.082C16.5005 15.082 16.6973 15.2788 16.6973 15.5215V16.4004ZM16.6973 13.7637C16.6973 14.0064 16.5005 14.2031 16.2578 14.2031C16.0151 14.2031 15.8184 14.0064 15.8184 13.7637V12.8848C15.8184 12.6421 16.0151 12.4453 16.2578 12.4453C16.5005 12.4453 16.6973 12.6421 16.6973 12.8848V13.7637ZM13.1816 11.127C13.1816 11.3696 12.9849 11.5664 12.7422 11.5664C12.4995 11.5664 12.3027 11.3696 12.3027 11.127V10.248C12.3027 10.0054 12.4995 9.80859 12.7422 9.80859C12.9849 9.80859 13.1816 10.0054 13.1816 10.248V11.127ZM14.9395 11.127C14.9395 11.3696 14.7427 11.5664 14.5 11.5664C14.2573 11.5664 14.0605 11.3696 14.0605 11.127V10.248C14.0605 10.0054 14.2573 9.80859 14.5 9.80859C14.7427 9.80859 14.9395 10.0054 14.9395 10.248V11.127ZM16.6973 11.127C16.6973 11.3696 16.5005 11.5664 16.2578 11.5664C16.0151 11.5664 15.8184 11.3696 15.8184 11.127V10.248C15.8184 10.0054 16.0151 9.80859 16.2578 9.80859C16.5005 9.80859 16.6973 10.0054 16.6973 10.248V11.127ZM13.1816 8.49023C13.1816 8.73293 12.9849 8.92969 12.7422 8.92969C12.4995 8.92969 12.3027 8.73293 12.3027 8.49023V7.61133C12.3027 7.36863 12.4995 7.17188 12.7422 7.17188C12.9849 7.17188 13.1816 7.36863 13.1816 7.61133V8.49023ZM14.9395 8.49023C14.9395 8.73293 14.7427 8.92969 14.5 8.92969C14.2573 8.92969 14.0605 8.73293 14.0605 8.49023V7.61133C14.0605 7.36863 14.2573 7.17188 14.5 7.17188C14.7427 7.17188 14.9395 7.36863 14.9395 7.61133V8.49023ZM16.6973 8.49023C16.6973 8.73293 16.5005 8.92969 16.2578 8.92969C16.0151 8.92969 15.8184 8.73293 15.8184 8.49023V7.61133C15.8184 7.36863 16.0151 7.17188 16.2578 7.17188C16.5005 7.17188 16.6973 7.36863 16.6973 7.61133V8.49023Z" fill="#FFEBB9"/>
<path d="M21.5605 11.8594H18.7773V21H21.5605C21.8032 21 22 20.8032 22 20.5605V12.2988C22 12.0561 21.8032 11.8594 21.5605 11.8594ZM20.8281 17.5723C20.8281 17.815 20.6314 18.0117 20.3887 18.0117C20.146 18.0117 19.9492 17.815 19.9492 17.5723V16.6934C19.9492 16.4507 20.146 16.2539 20.3887 16.2539C20.6314 16.2539 20.8281 16.4507 20.8281 16.6934V17.5723ZM20.8281 14.9355C20.8281 15.1782 20.6314 15.375 20.3887 15.375C20.146 15.375 19.9492 15.1782 19.9492 14.9355V14.0566C19.9492 13.8139 20.146 13.6172 20.3887 13.6172C20.6314 13.6172 20.8281 13.8139 20.8281 14.0566V14.9355Z" fill="#FFEBB9"/>
<path d="M7.43945 11.8594C7.19676 11.8594 7 12.0561 7 12.2988V20.5605C7 20.8032 7.19676 21 7.43945 21H10.2227V11.8594H7.43945ZM9.05078 17.5723C9.05078 17.815 8.85402 18.0117 8.61133 18.0117C8.36863 18.0117 8.17188 17.815 8.17188 17.5723V16.6934C8.17188 16.4507 8.36863 16.2539 8.61133 16.2539C8.85402 16.2539 9.05078 16.4507 9.05078 16.6934V17.5723ZM9.05078 14.9355C9.05078 15.1782 8.85402 15.375 8.61133 15.375C8.36863 15.375 8.17188 15.1782 8.17188 14.9355V14.0566C8.17188 13.8139 8.36863 13.6172 8.61133 13.6172C8.85402 13.6172 9.05078 13.8139 9.05078 14.0566V14.9355Z" fill="#FFEBB9"/>
</svg>

<svg width="28" height="28" fill="none" xmlns="http://www.w3.org/2000/svg"><rect width="28" height="28" rx="4" fill="#000"/><path d="M14.94 18.598h.878V21h-.878v-2.402ZM13.182 18.598h.878V21h-.878v-2.402Z" fill="#FFEBB9"/><path d="M17.459 6h-5.918a.44.44 0 0 0-.44.44V21h1.202v-2.842a.44.44 0 0 1 .44-.44h3.515a.44.44 0 0 1 .44.44V21h1.2V6.44A.44.44 0 0 0 17.46 6Zm-4.277 10.4a.44.44 0 1 1-.88 0v-.878a.44.44 0 0 1 .88 0v.878Zm0-2.636a.44.44 0 1 1-.88 0v-.88a.44.44 0 0 1 .88 0v.88ZM14.94 16.4a.44.44 0 0 1-.88 0v-.878a.44.44 0 0 1 .88 0v.878Zm0-2.636a.44.44 0 0 1-.88 0v-.88a.44.44 0 0 1 .88 0v.88Zm1.757 2.636a.44.44 0 0 1-.879 0v-.878a.44.44 0 1 1 .88 0v.878Zm0-2.636a.44.44 0 0 1-.879 0v-.88a.44.44 0 1 1 .88 0v.88Zm-3.515-2.637a.44.44 0 0 1-.88 0v-.879a.44.44 0 0 1 .88 0v.879Zm1.758 0a.44.44 0 0 1-.88 0v-.879a.44.44 0 0 1 .88 0v.879Zm1.757 0a.44.44 0 0 1-.879 0v-.879a.44.44 0 0 1 .88 0v.879ZM13.182 8.49a.44.44 0 1 1-.88 0v-.879a.44.44 0 0 1 .88 0v.88Zm1.758 0a.44.44 0 0 1-.88 0v-.879a.44.44 0 0 1 .88 0v.88Zm1.757 0a.44.44 0 0 1-.879 0v-.879a.44.44 0 1 1 .88 0v.88ZM21.56 11.86h-2.783V21h2.784a.44.44 0 0 0 .439-.44V12.3a.44.44 0 0 0-.44-.44Zm-.732 5.712a.44.44 0 1 1-.879 0v-.879a.44.44 0 0 1 .88 0v.88Zm0-2.636a.44.44 0 1 1-.879 0v-.88a.44.44 0 0 1 .88 0v.88ZM7.44 11.86a.44.44 0 0 0-.44.439v8.262c0 .242.197.439.44.439h2.783v-9.14H7.439Zm1.61 5.712a.44.44 0 0 1-.878 0v-.879a.44.44 0 1 1 .879 0v.88Zm0-2.636a.44.44 0 0 1-.878 0v-.88a.44.44 0 0 1 .879 0v.88Z" fill="#FFEBB9"/></svg>
